!!!!SEGMENT: pl-gd--ee-1638--008-015_marenzio-luca--il-quarto-libro-de-madrigalia-a-sei-voci-arsi-gran-tempo.krn
!!!cenid: 15xx:877
!!!COM: Marenzio, Luca
!!!COM-rismID: pe30003955
!!!CDT: ~1553-1599/08/22
!!!CNT: Italian
!!!GTL: Il Quarto Libro de madrigalia a sei voci
!!!OTL: Arsi gran tempo
!!!OMV: 015
!!!PDT: 1587
!!!AGN:
!!!SMS-siglum: PL-GD
!!!SMS-shelfmark: Ee 1638
!!!SMS-variant:
!!!SMS-altvar:
!!!SMS-shelfwork: 008-015 G
!!!NIFC-rismSourceID: 990039254
!!!NIFC-islandoraID: pl-gd:57883
!!!URL-pdf-islandora: https://repozytorium.nifc.pl/islandora/object/pl-gd%3A57883/datastream/PDF/view
!!!URL-scan: https://polish.musicsources.pl/pl/lokalizacje/galeria/klocki-introligatorskie/655 @EN{Scan on Polish Music Herritage in Open Access Website} @PL{Skany w portalu Dziedzictwo Muzyki Polskiej w otwartym dostępie}
!!!ONB-nifc: UWAGA: zbiór na stronach: Canto: s. 706-716, Alto: s. 554-564, Tenore: s. 402-412, Basso: s.250-260, Quinto: s. 98-108, Sesto: s. 16-26. Uwaga: utwory podzielone wg tytułów w spisach treści dostępnych na końcu każdej księgi głosowej.
!!!Key: G:mix
!!!AIN: 2 alto 1 bass 1 soprn 2 tenor
!!!key:
**kern	**text	**kern	**text	**kern	**text	**kern	**text	**kern	**text	**kern	**text
*part6	*part6	*part5	*part5	*part4	*part4	*part3	*part3	*part2	*part2	*part1	*part1
*staff6	*staff6	*staff5	*staff5	*staff4	*staff4	*staff3	*staff3	*staff2	*staff2	*staff1	*staff1
*I"BASSO	*	*I"TENORE	*	*I"SESTO	*	*I"QVINTO	*	*I"ALTO	*	*I"CANTO	*
*I'B.	*	*I'T.	*	*I'S	*	*I'Q	*	*I'A.	*	*I'C.	*
*Ibass	*	*Itenor	*	*Itenor	*	*Ialto	*	*Ialto	*	*Isoprn	*
*ICvox	*	*ICvox	*	*ICvox	*	*ICvox	*	*Cvox	*	*ICvox	*
*clefF4	*	*clefC4	*	*clefC4	*	*clefC3	*	*clefC3	*	*clefC1	*
*k[b-]	*	*k[b-]	*	*k[b-]	*	*k[b-]	*	*k[b-]	*	*k[b-]	*
*F:	*	*F:	*	*F:	*	*F:	*	*F:	*	*F:	*
*M2/1	*	*M2/1	*	*M2/1	*	*M2/1	*	*M2/1	*	*M2/1	*
*met(C)	*	*met(C)	*	*met(C)	*	*met(C)	*	*met(C)	*	*met(C)	*
=1-	=1-	=1-	=1-	=1-	=1-	=1-	=1-	=1-	=1-	=1-	=1-
!LO:TX:b:t=ARſi.	!	!	!	!LO:TX:b:t=ARſi	!	!LO:TX:b:t=ARſi	!	!	!	!	!
!LO:TX:a:t=Prima parte.	!	!LO:TX:a:t=Prima parte.	!	!LO:TX:a:t=Prima parte.	!	!LO:TX:a:t=Prima parte.	!	!LO:TX:a:t=Prima parte.	!	!LO:TX:a:t=Prima parte.	!
00r	.	2r	.	00r	.	00r	.	1r	.	2.g/	AR-
.	.	2.G/	AR-	.	.	.	.	.	.	.	.
.	.	.	.	.	.	.	.	.	.	4a\	.
.	.	.	.	.	.	.	.	2.d\	AR-	4b-\	.
.	.	4A/	.	.	.	.	.	.	.	4cc\	.
.	.	4B-\	.	.	.	.	.	.	.	4dd\	.
.	.	4c\	.	.	.	.	.	4e\	.	8cc\	.
.	.	.	.	.	.	.	.	.	.	8b-\	.
=2-	=2-	=2-	=2-	=2-	=2-	=2-	=2-	=2-	=2-	=2-	=2-
.	.	1d	.	.	.	.	.	4f#X\	.	4a\	.
.	.	.	.	.	.	.	.	4g\	.	2g/	.
.	.	.	.	.	.	.	.	2a\	.	.	.
.	.	.	.	.	.	.	.	.	.	4f#X/	.
!	!	!LO:N:acc=#	!	!	!	!	!	!	!	!	!
.	.	4Bn\	-ſi	.	.	.	.	4d\	-ſi	4g/	-ſi
.	.	4c\	gra(n)	.	.	.	.	4e\	gra(n)	4g/	gra(n)
.	.	1F/	tem-	.	.	.	.	1fny\	te(m)-	1a\	tem-
=3-	=3-	=3-	=3-	=3-	=3-	=3-	=3-	=3-	=3-	=3-	=3-
00r	.	.	.	00r	.	00r	.	.	.	.	.
.	.	2c\	po e	.	.	.	.	2e\	po e	2g/	-po
.	.	4.B-\	del	.	.	.	.	4.d\	del	2r	.
.	.	8B-\	mio	.	.	.	.	8d\	mio	.	.
.	.	4.A/	fo-	.	.	.	.	4c/	fo-	4r	.
.	.	.	.	.	.	.	.	2f\	co in-	4cc\	e
.	.	8A/	co in-	.	.	.	.	.	.	.	.
=4-	=4-	=4-	=4-	=4-	=4-	=4-	=4-	=4-	=4-	=4-	=4-
.	.	2G/	-de-	.	.	.	.	.	.	4.b-\	del
.	.	.	.	.	.	.	.	4e\	-de-	.	.
.	.	.	.	.	.	.	.	.	.	8b-\	mio
.	.	2F/	-gno	.	.	.	.	2f\	-gno	4.a\	fo-
.	.	.	.	.	.	.	.	.	.	8a\	co in-
!	!	!	!	!	!	!	!	!	!	!LO:SIC:v:t=custos g	!
!	!	!	!	!	!	!	!	!	!	!LO:LB:g=original	!
.	.	4r	.	.	.	.	.	2r	.	2g/	-de-
!	!	!LO:SIC:v:t=custos G	!	!	!	!	!	!	!	!	!
!	!	!LO:LB:g=original	!	!	!	!	!	!	!	!	!
.	.	4G/	Eſ-	.	.	.	.	.	.	.	.
.	.	4A/	-ca	.	.	.	.	4r	.	2fny/	-gno
.	.	4B-\	fu	.	.	.	.	4d\	E-	.	.
!	!	!	!	!	!	!	!	!LO:SIC:v:t=custos e	!	!	!
!	!	!	!	!	!	!	!	!LO:LB:g=original	!	!	!
=5-	=5-	=5-	=5-	=5-	=5-	=5-	=5-	=5-	=5-	=5-	=5-
00r	.	4c\	ſol	00r	.	00r	.	4e\	-ſca	4r	.
.	.	4d\	bel-	.	.	.	.	4f\	fu	4d/	Eſ-
.	.	1c	-tà	.	.	.	.	4g\	ſol	4e/	-ca
.	.	.	.	.	.	.	.	4a\	bel-	4f/	fu
.	.	.	.	.	.	.	.	4e\	-tà	4g/	ſol
.	.	.	.	.	.	.	.	4f\	ter-	4a\	bel
.	.	2G/	ter-	.	.	.	.	4g\	-re-	4b-\	tà
.	.	.	.	.	.	.	.	8f\	.	4cc\	ter-
.	.	.	.	.	.	.	.	8e\	.	.	.
=6-	=6-	=6-	=6-	=6-	=6-	=6-	=6-	=6-	=6-	=6-	=6-
.	.	4.B-\	-re-	.	.	.	.	4d\	.	4dd\	-re-
.	.	.	.	.	.	.	.	2g\	na e	4b-\	na e
.	.	8c\	na e	.	.	.	.	.	.	.	.
.	.	2d\	fra-	.	.	.	.	.	.	2a\	fra-
.	.	.	.	.	.	.	.	4f#X\	fra-	.	.
!	!	!	!	!	!	!	!	!	!	!LO:N:acc=#	!
.	.	1G	-le	.	.	.	.	1g	-le	2.bn\	-le
.	.	.	.	.	.	.	.	.	.	4cc\	.
=7-	=7-	=7-	=7-	=7-	=7-	=7-	=7-	=7-	=7-	=7-	=7-
!	!	!	!	!LO:N:acc=#	!	!	!	!	!	!	!
1G	E	00r	.	1Bn	E	2r	.	2r	.	1dd	.
.	.	.	.	.	.	2g\	E	2d\	E	.	.
2G\	qual	.	.	2B\	qual	2g\	qual	2d\	qual	1r	.
2G\	pa-	.	.	2B\	pa-	2d\	pa-	2g\	pa-	.	.
=8-	=8-	=8-	=8-	=8-	=8-	=8-	=8-	=8-	=8-	=8-	=8-
2.C/	-luſ-	.	.	2.c\	-luſ-	2.e-X\	-luſ-	2.g\	-luſ-	1r	.
4C/	tre au-	.	.	4c\	tre au-	4e-\	tre au-	4g\	tre au-	.	.
1G	-gel	.	.	2.B-\	-gel	4d\	-gel	1g	-gel	2r	.
.	.	.	.	.	.	4G/	pur	.	.	.	.
.	.	.	.	.	.	4d\	ſem-	.	.	2dd\	E
.	.	.	.	4c\	.	4e-\	-pre	.	.	.	.
=9-	=9-	=9-	=9-	=9-	=9-	=9-	=9-	=9-	=9-	=9-	=9-
00r	.	00r	.	1d	.	8f\	l'a-	1r	.	2dd\	qual
.	.	.	.	.	.	8eny\	.	.	.	.	.
.	.	.	.	.	.	8d\	.	.	.	.	.
.	.	.	.	.	.	8e\	.	.	.	.	.
!	!	!	!	!	!	!LO:SIC:v:t=custos f	!	!	!	!	!
!	!	!	!	!	!	!LO:LB:g=original	!	!	!	!	!
.	.	.	.	.	.	8f\	.	.	.	2a\	pa-
.	.	.	.	.	.	8g\	.	.	.	.	.
.	.	.	.	.	.	8a\	.	.	.	.	.
.	.	.	.	.	.	8f\	.	.	.	.	.
.	.	.	.	1r	.	2g\	.	4r	.	2.b-ny\	-lu-
.	.	.	.	.	.	.	.	4G/	pur	.	.
.	.	.	.	.	.	2G/	-le	4d\	ſem-	.	.
.	.	.	.	.	.	.	.	4e\	-pre	4b-\	ſtre au-
!	!	!	!	!	!	!	!	!LO:SIC:v:t=custos f	!	!	!
!	!	!	!	!	!	!	!	!LO:LB:g=original	!	!	!
=10-	=10-	=10-	=10-	=10-	=10-	=10-	=10-	=10-	=10-	=10-	=10-
.	.	.	.	00r	.	1r	.	8fny\	l'a-	2.a\	-gel
.	.	.	.	.	.	.	.	8e\	.	.	.
.	.	.	.	.	.	.	.	8d\	.	.	.
.	.	.	.	.	.	.	.	8e\	.	.	.
.	.	.	.	.	.	.	.	8f\	.	.	.
.	.	.	.	.	.	.	.	8g\	.	.	.
.	.	.	.	.	.	.	.	8a\	.	4f/	pur
.	.	.	.	.	.	.	.	8f\	.	.	.
!	!	!	!	!	!	!	!	!	!	!LO:SIC:v:t=custos b-	!
!	!	!	!	!	!	!	!	!	!	!LO:LB:g=original	!
.	.	.	.	.	.	4r	.	2g\	.	2b-\	ſem-
.	.	.	.	.	.	4G/	pur	.	.	.	.
.	.	.	.	.	.	4d\	ſem-	2G/	-le	2b-\	-pre
.	.	.	.	.	.	4e\	-pre	.	.	.	.
=11-	=11-	=11-	=11-	=11-	=11-	=11-	=11-	=11-	=11-	=11-	=11-
00r	.	00r	.	.	.	8f\	l'a-	8d\	Vol	8a\	l'a-
.	.	.	.	.	.	8e\	.	8e\	.	8g/	.
.	.	.	.	.	.	8d\	.	8f\	.	8f/	.
.	.	.	.	.	.	8e\	.	8g\	.	8e/	.
.	.	.	.	.	.	8f\	.	4a\	.	8d/	.
.	.	.	.	.	.	8g\	.	.	.	8e/	.
.	.	.	.	.	.	8a\	.	4d\	ſi	8f/	.
.	.	.	.	.	.	8f\	.	.	.	8d/	.
.	.	.	.	.	.	2g\	.	2c/	di	8e/	.
.	.	.	.	.	.	.	.	.	.	8f/	.
.	.	.	.	.	.	.	.	.	.	8g/	.
.	.	.	.	.	.	.	.	.	.	8a\	.
.	.	.	.	.	.	2G/	-le	2g\	fan-	4b-\	.
.	.	.	.	.	.	.	.	.	.	4b-\	-le
=12-	=12-	=12-	=12-	=12-	=12-	=12-	=12-	=12-	=12-	=12-	=12-
.	.	.	.	00r	.	8d\	Vol	1f	-go	4a\	Vol-
.	.	.	.	.	.	8e\	.	.	.	.	.
.	.	.	.	.	.	8f\	.	.	.	8d/	-ſi
.	.	.	.	.	.	8g\	.	.	.	8e/	.
.	.	.	.	.	.	4a\	.	.	.	8f/	.
.	.	.	.	.	.	.	.	.	.	8g/	.
.	.	.	.	.	.	4d\	ſi	.	.	8a\	.
.	.	.	.	.	.	.	.	.	.	8b-\	.
.	.	.	.	.	.	2c/	di	2r	.	4cc\	.
.	.	.	.	.	.	.	.	.	.	4g/	di
!	!	!	!	!	!	!LO:SIC:v:t=custos g	!	!	!	!	!
!	!	!	!	!	!	!LO:LB:g=original	!	!	!	!	!
.	.	.	.	.	.	2g\	fan-	4r	.	2b-\	fan-
.	.	.	.	.	.	.	.	4g\	aſ-	.	.
=13-	=13-	=13-	=13-	=13-	=13-	=13-	=13-	=13-	=13-	=13-	=13-
00r	.	00r	.	.	.	2f\	-go	4.a\	-per-	2cc\	-go
.	.	.	.	.	.	.	.	8f\	ſe ad	.	.
.	.	.	.	.	.	4r	.	4g\	hu-	4r	.
.	.	.	.	.	.	4g\	aſ-	4e\	-mil	4c/	a-
!	!	!	!	!	!	!	!	!	!	!LO:SIC:v:t=custos cc	!
!	!	!	!	!	!	!	!	!	!	!LO:LB:g=original	!
.	.	.	.	.	.	4.a\	-per-	2f\	ſe-	1cc	-ſper-
.	.	.	.	.	.	8f\	ſe ad	.	.	.	.
.	.	.	.	.	.	4g\	hu-	4c/	-gno	.	.
.	.	.	.	.	.	4e\	-mil	4g\	a-	.	.
!	!	!	!	!	!	!	!	!LO:SIC:v:t=custos a	!	!	!
!	!	!	!	!	!	!	!	!LO:LB:g=original	!	!	!
=14-	=14-	=14-	=14-	=14-	=14-	=14-	=14-	=14-	=14-	=14-	=14-
.	.	.	.	00r	.	2f\	ſe-	4.a\	-ſper-	2cc\	-ſe
.	.	.	.	.	.	.	.	8f\	ſe ad	.	.
.	.	.	.	.	.	4c/	-gno	4g\	hu-	4r	.
.	.	.	.	.	.	4g\	aſ-	4e\	-mil	4cc\	a-
.	.	.	.	.	.	4.a\	-per-	4.f\	ſe-	4.cc\	-ſper-
.	.	.	.	.	.	8f\	ſe ad	8d\	.	8dd\	ſe ad
.	.	.	.	.	.	4g\	hu-	8e\	.	2.cc\	hu-
.	.	.	.	.	.	.	.	8f\	.	.	.
.	.	.	.	.	.	4c/	-mil	8g\	.	.	.
.	.	.	.	.	.	.	.	8e\	.	.	.
=15-	=15-	=15-	=15-	=15-	=15-	=15-	=15-	=15-	=15-	=15-	=15-
0r	.	0r	.	.	.	1d	ſe-	4f#X\	.	.	.
.	.	.	.	.	.	.	.	2g\	.	4b-\	-mil
.	.	.	.	.	.	.	.	.	.	2a\	ſe-
.	.	.	.	.	.	.	.	4f#X\	-gno	.	.
.	.	.	.	.	.	1G	-gno	1.g	.	8g/	-gno
.	.	.	.	.	.	.	.	.	.	8f/	.
.	.	.	.	.	.	.	.	.	.	8e/	.
.	.	.	.	.	.	.	.	.	.	8f/	.
.	.	.	.	.	.	.	.	.	.	8g/	.
.	.	.	.	.	.	.	.	.	.	8a\	.
.	.	.	.	.	.	.	.	.	.	8b-\	.
.	.	.	.	.	.	.	.	.	.	8cc\	.
=16-	=16-	=16-	=16-	=16-	=16-	=16-	=16-	=16-	=16-	=16-	=16-
2G\	Hot	2d\	Hor	2B-\	Hor	4r	.	.	.	1dd	.
.	.	.	.	.	.	4g\	Hor	.	.	.	.
4G\	che	4d\	che	4B-\	che	4g\	che	2r	.	.	.
4G\	può	4d\	può	4B-\	può	4g\	può	.	.	.	.
!	!	!	!	!LO:SIC:v:t=custos B-	!	!	!	!	!	!	!
!	!	!	!	!LO:LB:g=original	!	!	!	!	!	!	!
2G\	ge-	2d\	ge-	2B-\	ge-	2g\	ge-	1r	.	1r	.
2D/	-lo	2d\	-lo	2A/	-lo	2f#X\	-lo	.	.	.	.
!LO:SIC:v:t=custos G	!	!	!	!	!	!LO:SIC:v:t=custos g	!	!	!	!	!
!LO:LB:g=original	!	!	!	!	!	!	!LO:LB:g=original	!	!	!	!
=17-	=17-	=17-	=17-	=17-	=17-	=17-	=17-	=17-	=17-	=17-	=17-
4.G\	di	4.d\	di	4.B-\	di	4.g\	di	0r	.	1r	.
8D/	ſi	8d\	ſi	8A/	ſi	8f#X\	ſi	.	.	.	.
4G\	giuſ-	4d\	giuſ-	4B-\	giuſ-	4g\	giuſ-	.	.	.	.
!	!	!LO:SIC:v:t=custos f	!	!	!	!	!	!	!	!	!
!	!	!LO:LB:g=original	!	!	!	!	!	!	!	!	!
4F\	-to	4f\	-to	4c\	-to	4a\	-to	.	.	.	.
2B-\	ſde-	2f\	ſde-	2d\	ſde-	2.b-\	ſde-	.	.	2dd\	Hor
2BB-/	-gno	2d\	-gno	2B-\	-gno	.	.	.	.	4dd\	che
.	.	.	.	.	.	4f#\	-gno	.	.	4dd\	può
=18-	=18-	=18-	=18-	=18-	=18-	=18-	=18-	=18-	=18-	=18-	=18-
2B-\	Hor	2d\	Hor	1r	.	0r	.	2f\	Hor	2dd\	ge-
4B-\	che	4d\	che	.	.	.	.	4f\	che	2b-\	-lo
4B-\	può	4d\	può	.	.	.	.	4f\	può	.	.
1B-	ge-	2B-\	ge-	4.d\	di	.	.	2f\	ge-	4.b-\	di
!	!	!	!	!	!	!	!	!	!	!LO:SIC:v:t=custos b-	!
!	!	!	!	!	!	!	!	!	!	!LO:LB:g=original	!
.	.	.	.	8c\	ſi	.	.	.	.	8a\	ſi
.	.	2BB-/	-lo	4d\	giu-	.	.	2f\	-lo	4b-\	giuſ-
.	.	.	.	4e\	-ſto	.	.	.	.	4cc\	-to
=19-	=19-	=19-	=19-	=19-	=19-	=19-	=19-	=19-	=19-	=19-	=19-
1BB-	-lo	4.F/	di	2f\	ſde-	2B-/	Hor	4.d\	di	2dd\	ſde-
.	.	8E/	ſi	.	.	.	.	8c/	ſi	.	.
.	.	4F/	giuſ-	2f\	-gno	4B-/	che	4d\	giuſ-	2b-\	-gno
.	.	4G/	-to	.	.	4B-/	può	4e\	-to	.	.
!	!	!	!	!	!	!	!	!LO:SIC:v:t=custos f	!	!	!
!	!	!	!	!	!	!	!	!LO:LB:g=original	!	!	!
4.F\	di	2A/	ſde-	1r	.	1c	ge-	2f\	ſde-	4.a\	di
8E\	ſi	.	.	.	.	.	.	.	.	8g/	ſi
4F\	giu-	2A/	-gno	.	.	.	.	2f\	-gno,	4a\	giu-
4G\	-ſto	.	.	.	.	.	.	.	.	4b-\	-ſto
=20-	=20-	=20-	=20-	=20-	=20-	=20-	=20-	=20-	=20-	=20-	=20-
2A\	ſde-	1r	.	0r	.	1c	-lo	4.e\	di	2cc\	ſde-
.	.	.	.	.	.	.	.	8d\	ſi	.	.
2A\	-gno	.	.	.	.	.	.	4e\	giuſ-	2cc\	-gno
.	.	.	.	.	.	.	.	4f\	-to	.	.
4.G\	di	4.B-\	di	.	.	4.d\	di	4g\	ſde-	4.b-\	/di
.	.	.	.	.	.	.	.	4d\	-gno	.	.
8D/	ſi	8d\	ſi	.	.	8f#X\	ſi	.	.	8a\	ſi
!LO:SIC:v:t=custos G	!	!	!	!	!	!	!	!	!	!	!
!LO:LB:g=original	!	!	!	!	!	!	!	!	!	!	!
4G\	giuſ-	4d\	giuſ-	.	.	4g\	giuſ-	2r	.	4b-\	giu-
4F\	-to	2f\	-to	.	.	4a\	-to	.	.	4cc\	-ſto
=21-	=21-	=21-	=21-	=21-	=21-	=21-	=21-	=21-	=21-	=21-	=21-
1B-	ſde-	.	.	4.d\	di	2b-\	ſde-	4.f\	di	1dd	ſde-
.	.	4.B-\	ſde-	.	.	.	.	.	.	.	.
.	.	.	.	8c\	ſi	.	.	8e\	ſi	.	.
.	.	.	.	4d\	giu-	2B-/	-gno	4f\	giu-	.	.
.	.	8A/	.	.	.	.	.	.	.	.	.
.	.	4G/	.	4e\	-ſto	.	.	4g\	-ſto	.	.
!	!	!LO:SIC:v:t=custos c	!	!LO:SIC:v:t=custos f	!	!	!	!	!	!	!
!	!	!LO:LB:g=original	!	!LO:LB:g=original	!	!	!	!	!	!	!
1F	-gno	8c\	.	2f\	ſde-	1r	.	2a\	ſde-	1cc	-gno/
.	.	8B-\	.	.	.	.	.	.	.	.	.
.	.	8A/	.	.	.	.	.	.	.	.	.
.	.	8G/	.	.	.	.	.	.	.	.	.
.	.	2A/	-gno	2c\	-gno	.	.	2a\	-gno	.	.
=22-	=22-	=22-	=22-	=22-	=22-	=22-	=22-	=22-	=22-	=22-	=22-
4r	.	4r	.	4r	.	4r	.	1r	.	1r	.
4.C/	Spe-	4.G/	Spe-	4.c\	Spe-	4.e-X\	Spe-	.	.	.	.
8C/	-gner	8G/	-gner	8c\	-gner	8e-\	-gner	.	.	.	.
4E-X\	nel	4G/	nel	4G/	nel	4c/	nel	.	.	.	.
!	!	!	!	!	!	!LO:SIC:v:t=custos d	!	!	!	!	!
!	!	!	!	!	!	!LO:LB:g=original	!	!	!	!	!
2D/	cor	1F#X	cor	2A/	cor	1d	cor	2r	.	4r	.
.	.	.	.	.	.	.	.	.	.	4a\	l'in-
2D/	l'in-	.	.	2A/	l'in-	.	.	4r	.	4.dd\	-cen-
.	.	.	.	.	.	.	.	2d\	l'in-	.	.
.	.	.	.	.	.	.	.	.	.	8cc\	.
=23-	=23-	=23-	=23-	=23-	=23-	=23-	=23-	=23-	=23-	=23-	=23-
8G\	-cen-	1r	.	2B-\	-cen-	2r	.	.	.	8b-\	.
8F\	.	.	.	.	.	.	.	.	.	8a\	.
8E-X\	.	.	.	.	.	.	.	8g\	-cen-	2g/	dio a-
8D\	.	.	.	.	.	.	.	8f\	.	.	.
8C/	.	.	.	1c	dio a-	4r	.	8e-X\	.	.	.
8BB-/	.	.	.	.	.	.	.	8d\	.	.	.
8AA/	.	.	.	.	.	4eny\	l'in-	8c\	.	4.cc\	.
8GG/	.	.	.	.	.	.	.	8B-/	.	.	.
2FF/	.	4r	.	.	.	2a\	-cen-	8A/	.	.	.
.	.	.	.	.	.	.	.	8G/	.	8b-\	.
.	.	4c\	l'in-	.	.	.	.	2F/	-dio	8a\	.
.	.	.	.	.	.	.	.	.	.	8g\	.
!	!	!	!	!	!	!	!	!	!	!LO:SIC:v:t=custos f	!
!	!	!	!	!	!	!	!	!	!	!LO:LB:g=original	!
2F\	dio a-	8c\	-cen-	1A\	-ſpr'e	2.a\	dio aſ-	.	.	2f/	.
.	.	8B-\	.	.	.	.	.	.	.	.	.
.	.	8A\	.	.	.	.	.	2f\	a-	.	.
.	.	8G/	.	.	.	.	.	.	.	.	.
!LO:SIC:v:t=custos D	!	!	!	!	!	!	!	!LO:SIC:v:t=custos d	!	!	!
!LO:LB:g=orignal	!	!	!	!	!	!	!	!LO:LB:g=original	!	!	!
=24-	=24-	=24-	=24-	=24-	=24-	=24-	=24-	=24-	=24-	=24-	=24-
2D/	-ſpr'e	4Fny/	.	.	.	.	.	.	.	4.ff\	-ſpr'e
.	.	4A/	dio aſ-	.	.	2fny\	-pr'e	2d\	-ſpr'e	.	.
.	.	.	.	.	.	.	.	.	.	8ee\	mor-
2BB-/	mor-	4d\	-pr'e	1f	mor-	.	.	.	.	4.dd\	-ta-
.	.	4d\	mor-	.	.	2F/	mor-	4B-/	mor-	.	.
.	.	.	.	.	.	.	.	.	.	16cc\	.
.	.	.	.	.	.	.	.	.	.	16b-\	.
1F	-ta-	1f	-ta-	.	.	.	.	1c	-ta-	4a\	.
.	.	.	.	.	.	4.g\	-ta-	.	.	2b-\	.
.	.	.	.	1F/	-ta-	.	.	.	.	.	.
.	.	.	.	.	.	16e\	.	.	.	.	.
.	.	.	.	.	.	16d\	.	.	.	.	.
.	.	.	.	.	.	4c/	.	.	.	4a\	.
=25-	=25-	=25-	=25-	=25-	=25-	=25-	=25-	=25-	=25-	=25-	=25-
1BB-	-le	1f	-le	.	.	1d	-le	1.B-	-le	1b-	-le
.	.	.	.	2F/	-le	.	.	.	.	.	.
!	!	!LO:SIC:v:t=custos d	!	!	!	!	!	!	!	!	!
!	!	!LO:LB:g=original	!	!	!	!	!	!	!	!	!
4r	.	2d\	Scoſ-	1r	.	1r	.	.	.	2r	.
4B-\	Scoſ-	.	.	.	.	.	.	.	.	.	.
4A\	-ſo	4c\	-ſo	.	.	.	.	2r	.	4.f/	Scoſ-
4.B-\	d'o-	4.d\	d'o-	.	.	.	.	.	.	.	.
.	.	.	.	.	.	.	.	.	.	8f/	-ſo
=26-	=26-	=26-	=26-	=26-	=26-	=26-	=26-	=26-	=26-	=26-	=26-
.	.	.	.	0r	.	1r	.	2r	.	4.g/	d'o-
8G\	-gni	8d\	-gni	.	.	.	.	.	.	.	.
4c\	vil	4e\	vil	.	.	.	.	.	.	.	.
.	.	.	.	.	.	.	.	.	.	8g/	-gni
4F\	ſo-	4f\	ſo-	.	.	.	.	4r	.	2a\	vil
4F\	ma al	4c\	-ma	.	.	.	.	4f\	Scoſ-	.	.
4A\	ciel	1r	.	.	.	4.c/	Scoſ-	4eny\	-ſo	4.a\	ſo-
4A\	ne	.	.	.	.	.	.	4.f\	d'o-	.	.
.	.	.	.	.	.	8c/	-ſo	.	.	8g/	ma al
2B-\	ſa-	.	.	.	.	4.d\	d'o-	.	.	4f/	ciel
.	.	.	.	.	.	.	.	8d\	-gni	.	.
.	.	.	.	.	.	.	.	4g\	vil	4d/	ne
.	.	.	.	.	.	8d\	-gni	.	.	.	.
=27-	=27-	=27-	=27-	=27-	=27-	=27-	=27-	=27-	=27-	=27-	=27-
2A\	-le	1r	.	4r	.	4e\	vil	4c/	ſo-	2a\	ſa-
.	.	.	.	4A/	Con	2e\	ſo-	4c/	-ma'al	.	.
2r	.	.	.	4c\	pron-	.	.	4e\	ciel	2g/	-le
!	!	!	!	!LO:SIC:v:t=custos F	!	!LO:SIC:v:t=custos a	!	!	!	!	!
!	!	!	!	!LO:LB:g=original	!	!	!LO:LB:g=original	!	!	!	!
.	.	.	.	4c\	-to	4g\	ma al	4e\	ne	.	.
2r	.	2r	.	8F/	vo-	4a\	ciel	2f\	ſa-	2r	.
.	.	.	.	8G/	.	.	.	.	.	.	.
.	.	.	.	8A/	.	4a\	ne	.	.	.	.
.	.	.	.	8B-\	.	.	.	.	.	.	.
4r	.	4r	.	4.c\	.	8g\	ſa-	2e\	-le	2cc\	al
.	.	.	.	.	.	8f\	.	.	.	.	.
4AA/	Con	4c\	al	.	.	8e\	.	.	.	.	.
.	.	.	.	16B-\	.	8d\	.	.	.	.	.
.	.	.	.	16A\	.	.	.	.	.	.	.
=28-	=28-	=28-	=28-	=28-	=28-	=28-	=28-	=28-	=28-	=28-	=28-
4C/	pron-	4e\	ciel	2G/	.	1.c	.	1r	.	4cc\	ciel
4C/	-to	4e\	ne	.	.	.	.	.	.	4g/	ne
!LO:SIC:v:t=custos FF	!	!	!	!	!	!	!	!	!	!	!
!LO:LB:g=original	!	!	!	!	!	!	!	!	!	!	!
8FF/	vo-	2f\	ſa-	2F/	-lo	.	.	.	.	2a\	ſa-
8GG/	.	.	.	.	.	.	.	.	.	.	.
8AA/	.	.	.	.	.	.	.	.	.	.	.
8BB-/	.	.	.	.	.	.	.	.	.	.	.
!	!	!	!	!	!	!	!	!	!	!LO:SIC:v:t=custos g	!
!	!	!	!	!	!	!	!	!	!	!LO:LB:g=original	!
4.C/	.	4.e\	-le	2r	.	.	.	4r	.	2g/	-le
.	.	.	.	.	.	.	.	4e\	Con	.	.
16BB-/	.	16d\	.	.	.	.	.	.	.	.	.
16AA/	.	16c\	.	.	.	.	.	.	.	.	.
!	!	!	!	!	!	!LO:N:acc=#	!	!	!	!	!
2GG/	.	2d\	.	4r	.	2Bn/	-le	4g\	pron-	2r	.
.	.	.	.	4G/	il	.	.	4g\	-to	.	.
=29-	=29-	=29-	=29-	=29-	=29-	=29-	=29-	=29-	=29-	=29-	=29-
2AA/	-lo	1r	.	4.E/	mio	4r	.	8c\	vo-	4r	.
.	.	.	.	.	.	.	.	8d\	.	.	.
.	.	.	.	.	.	4c/	al	8e\	.	4a\	Co(n)
.	.	.	.	8D/	non	.	.	8f\	.	.	.
!	!	!	!	!	!	!	!	!LO:SIC:v:t=custos g	!	!LO:TX:t=P:problem:b- lub cc	!
!	!	!	!	!	!	!	!	!LO:LB:g=original	!	!	!
2r	.	.	.	4C/	pi-	4e\	ciel	4.g\	.	4b-\	pro(n)-
.	.	.	.	4C/	gro in-	4e\	ne	.	.	4cc\	-to
.	.	.	.	.	.	.	.	16f\	.	.	.
.	.	.	.	.	.	.	.	16e\	.	.	.
1r	.	2r	.	2D/	-ge-	2f\	ſa-	2d\	.	8f/	vo-
.	.	.	.	.	.	.	.	.	.	8g\	.
.	.	.	.	.	.	.	.	.	.	8a\	.
.	.	.	.	.	.	.	.	.	.	8b-\	.
.	.	4r	.	2A/	-gno	2e\	-le	4c/	-lo	4.cc\	.
.	.	4A/	Con	.	.	.	.	4c/	al	.	.
.	.	.	.	.	.	.	.	.	.	16b-\	.
.	.	.	.	.	.	.	.	.	.	16a\	.
=30-	=30-	=30-	=30-	=30-	=30-	=30-	=30-	=30-	=30-	=30-	=30-
0r	.	4c\	pro(n)-	00r	.	1r	.	4e\	ciel	2g/	.
.	.	4c\	-to	.	.	.	.	4e\	ne	.	.
!	!	!LO:SIC:v:t=custos F	!	!	!	!	!	!	!	!	!
!	!	!LO:LB:g=original	!	!	!	!	!	!	!	!	!
.	.	8F/	vo-	.	.	.	.	2f\	ſa-	2a\	-lo
.	.	8G/	.	.	.	.	.	.	.	.	.
.	.	8A/	.	.	.	.	.	.	.	.	.
.	.	8B-\	.	.	.	.	.	.	.	.	.
.	.	4.c\	.	.	.	4r	.	4.e\	-le	4r	.
.	.	.	.	.	.	4e\	Con	.	.	4g/	al
.	.	16B-\	.	.	.	.	.	16d\	.	.	.
.	.	16A\	.	.	.	.	.	16c\	.	.	.
!	!	!	!	!	!	!	!	!	!	!LO:N:acc=#	!
.	.	2G/	.	.	.	4g\	pron-	2d\	.	4bn\	ciel
.	.	.	.	.	.	4g\	-to	.	.	4b\	ne
=31-	=31-	=31-	=31-	=31-	=31-	=31-	=31-	=31-	=31-	=31-	=31-
2r	.	2A/	-lo	.	.	8c\	vo-	0r	.	4.cc\	ſa-
.	.	.	.	.	.	8d\	.	.	.	.	.
.	.	.	.	.	.	8e\	.	.	.	.	.
!	!	!	!	!	!	!	!	!	!	!	!
.	.	.	.	.	.	8f\	.	.	.	8a\	.
!	!	!	!	!	!	!LO:SIC:v:t=custos g	!	!	!	!LO:N:acc=#	!
!	!	!	!	!	!	!LO:LB:g=original	!	!	!	!	!
4r	.	2r	.	.	.	4.g\	.	.	.	4bn\	.
4Eny\	Con	.	.	.	.	.	.	.	.	4.cc\	.
.	.	.	.	.	.	16f\	.	.	.	.	.
.	.	.	.	.	.	16e\	.	.	.	.	.
4G\	pron-	2r	.	.	.	2d\	.	.	.	.	.
!	!	!	!	!	!	!	!	!	!	!LO:N:acc=#	!
.	.	.	.	.	.	.	.	.	.	8bn\	.
4G\	-to	.	.	.	.	.	.	.	.	4b\	.
8C/	vo-	4r	.	.	.	2e\	-lo	.	.	2cc\	-le
8D\	.	.	.	.	.	.	.	.	.	.	.
8E\	.	4G/	il	.	.	.	.	.	.	.	.
8F\	.	.	.	.	.	.	.	.	.	.	.
=32-	=32-	=32-	=32-	=32-	=32-	=32-	=32-	=32-	=32-	=32-	=32-
4.G\	.	4.B-\	mio	2r	.	1r	.	4r	.	0r	.
.	.	.	.	.	.	.	.	4d\	Con	.	.
16F\	.	8c\	no(n)	.	.	.	.	.	.	.	.
16E\	.	.	.	.	.	.	.	.	.	.	.
2D/	.	4d\	pi-	4r	.	.	.	4f\	pron-	.	.
.	.	4d\	gro in-	4A/	Con	.	.	4f\	-to	.	.
!LO:SIC:v:t=custos C	!	!	!	!	!	!	!	!	!	!	!
!LO:LB:g=original	!	!	!	!	!	!	!	!	!	!	!
2C/	-lo	2G/	-ge-	4c\	pron-	2r	.	8e\	vo-	.	.
.	.	.	.	.	.	.	.	8f\	.	.	.
.	.	.	.	4c\	-to	.	.	8g\	.	.	.
.	.	.	.	.	.	.	.	8e\	.	.	.
!	!	!	!	!LO:SIC:v:t=custos F	!	!	!	!	!	!	!
!	!	!	!	!LO:LB:g=original	!	!	!	!	!	!	!
2r	.	2c\	-gno	8F/	vo-	4r	.	2a\	.	.	.
.	.	.	.	8G/	.	.	.	.	.	.	.
.	.	.	.	8A/	.	4c/	il	.	.	.	.
.	.	.	.	8B-\	.	.	.	.	.	.	.
=33-	=33-	=33-	=33-	=33-	=33-	=33-	=33-	=33-	=33-	=33-	=33-
1r	.	4r	.	4.c\	.	4.e\	mio	2g\	-lo	4r	.
.	.	4c\	il	.	.	.	.	.	.	4g/	il
.	.	.	.	16B-\	.	8f\	non	.	.	.	.
.	.	.	.	16A\	.	.	.	.	.	.	.
!	!	!	!	!	!	!	!	!	!	!LO:SIC:v:t=custos b-	!
!	!	!	!	!	!	!	!	!	!	!LO:LB:g=original	!
.	.	4.d\	mio	2G/	.	4g\	pi-	4r	.	4.b-\	mio
!	!	!	!	!	!	!	!	!LO:SIC:v:t=custos d	!	!	!
!	!	!	!	!	!	!	!	!LO:LB:g=original	!	!	!
.	.	.	.	.	.	4g\	gro in-	2d\	il	.	.
.	.	8e\	non	.	.	.	.	.	.	8cc\	no(n)
!	!	!LO:SIC:v:t=custos f	!	!	!	!	!	!	!	!	!
!	!	!LO:LB:g=original	!	!	!	!	!	!	!	!	!
4r	.	4.f\	pi-	2D/	-lo	2a\	-ge-	.	.	2dd\	pi-
4D/	il	.	.	.	.	.	.	4.f\	mio	.	.
.	.	16e\	.	.	.	.	.	.	.	.	.
.	.	16d\	.	.	.	.	.	.	.	.	.
4.F\	mio	4c\	.	2r	.	2f\	-gno	.	.	4a\	-gr'in-
.	.	.	.	.	.	.	.	8g\	no)n)	.	.
.	.	4f\	gro in-	.	.	.	.	2a\	pi-	4.dd\	-ge-
8G\	non	.	.	.	.	.	.	.	.	.	.
=34-	=34-	=34-	=34-	=34-	=34-	=34-	=34-	=34-	=34-	=34-	=34-
4A\	pi-	4.e\	-ge-	1r	.	1r	.	.	.	.	.
.	.	.	.	.	.	.	.	.	.	8cc\	.
4A\	gro in-	.	.	.	.	.	.	4e\	gro in-	2cc\	.
.	.	16d\	.	.	.	.	.	.	.	.	.
.	.	16c\	.	.	.	.	.	.	.	.	.
2G\	-ge-	2d\	.	.	.	.	.	2g\	-ge-	.	.
!	!	!	!	!	!	!	!	!	!	!LO:N:acc=#	!
.	.	.	.	.	.	.	.	.	.	4bn\	.
0C	-gno	0e	-gno	2r	.	4r	.	1.g	-gno	1cc	-gno
.	.	.	.	.	.	4e\	Con	.	.	.	.
.	.	.	.	4r	.	4g\	pron-	.	.	.	.
.	.	.	.	4G/	il	4g\	-to	.	.	.	.
=35-	=35-	=35-	=35-	=35-	=35-	=35-	=35-	=35-	=35-	=35-	=35-
.	.	.	.	4.E/	mio	8c\	vo-	.	.	4r	.
.	.	.	.	.	.	8d\	.	.	.	.	.
.	.	.	.	.	.	8e\	.	.	.	4g/	Co(n)
.	.	.	.	8D/	non	8f\	.	.	.	.	.
!	!	!	!	!	!	!LO:SIC:v:t=custos g	!	!	!	!	!
!	!	!	!	!	!	!LO:LB:g=original	!	!	!	!	!
.	.	.	.	4C/	pigr'-	4.g\	.	2r	.	4cc\	pro(n)-
.	.	.	.	4C/	-in-	.	.	.	.	4cc\	-to
.	.	.	.	.	.	16f\	.	.	.	.	.
.	.	.	.	.	.	16e\	.	.	.	.	.
1r	.	2r	.	2D/	-ge-	2d\	.	2r	.	8f/	vo-
.	.	.	.	.	.	.	.	.	.	8g/	.
.	.	.	.	.	.	.	.	.	.	8a\	.
.	.	.	.	.	.	.	.	.	.	8b-\	.
.	.	4r	.	2A/	-gno	2e\	-lo	4r	.	4.cc\	.
.	.	4A/	Con	.	.	.	.	4c/	Co(n)	.	.
.	.	.	.	.	.	.	.	.	.	16b-\	.
.	.	.	.	.	.	.	.	.	.	16a\	.
=36-	=36-	=36-	=36-	=36-	=36-	=36-	=36-	=36-	=36-	=36-	=36-
1r	.	4c\	pron-	1r	.	1r	.	4e\	pro(n)-	2g/	.
.	.	4c\	-to	.	.	.	.	4e\	-to	.	.
.	.	8F/	vo-	.	.	.	.	2f\	vo-	2a\	-lo
.	.	8G/	.	.	.	.	.	.	.	.	.
.	.	8A/	.	.	.	.	.	.	.	.	.
.	.	8B-\	.	.	.	.	.	.	.	.	.
2r	.	2c\	.	2r	.	4r	.	8e\	-lo	1r	.
.	.	.	.	.	.	.	.	8d\	.	.	.
.	.	.	.	.	.	4g\	il	8e\	.	.	.
.	.	.	.	.	.	.	.	8f\	.	.	.
2C/	il	2c\	-lo	4r	.	4.e\	mio	2g\	.	.	.
.	.	.	.	4G/	il	.	.	.	.	.	.
.	.	.	.	.	.	8d\	non	.	.	.	.
!	!	!	!	!LO:SIC:v:t=custos A	!	!	!	!	!	!	!
!	!	!	!	!LO:LB:g=original	!	!	!	!	!	!	!
=37-	=37-	=37-	=37-	=37-	=37-	=37-	=37-	=37-	=37-	=37-	=37-
4.AA/	mio	1r	.	4.A/	mio	4c/	pigr'-	4r	.	1r	.
.	.	.	.	.	.	4c/	-in-	4e\	il	.	.
8GG/	non	.	.	8B-\	non	.	.	.	.	.	.
4FF/	pi-	.	.	4c\	pi-	4.f\	-ge-	4.a\	mio	.	.
4FF/	gro in-	.	.	4c\	gro in-	.	.	.	.	.	.
.	.	.	.	.	.	8e\	.	8a\	non	.	.
0GG	-ge-	4r	.	4.B-\	-ge-	0d	.	2g\	pigr'-	4r	.
.	.	4B-\	il	.	.	.	.	.	.	4g/	il
.	.	.	.	8A/	.	.	.	.	.	.	.
!	!	!LO:SIC:v:t=custos d	!	!	!	!	!	!	!	!	!
!	!	!LO:LB:g=original	!	!	!	!	!	!	!	!	!
.	.	4.d\	mio	2G/	.	.	.	2g\	-in-	4.b-\	mio
.	.	8c\	non	.	.	.	.	.	.	8cc\	no(n)
=38-	=38-	=38-	=38-	=38-	=38-	=38-	=38-	=38-	=38-	=38-	=38-
.	.	4B-\	pi-	00D	-gno.	.	.	1g	-ge-	4dd\	pi-
.	.	4A/	gro in-	.	.	.	.	.	.	4cc\	-gr'in-
.	.	2G/	-ge-	.	.	.	.	.	.	2b-\	-ge-
0.D	-gno.	0.A	-gno.	.	.	0.d	-gno.	0.f#X	-gno.	0.a	-gno
=39-	=39-	=39-	=39-	=39-	=39-	=39-	=39-	=39-	=39-	=39-	=39-
!	!	!	!	!	!	!	!	!	!	!LO:TX:t=P:problem:Pod pięciolonią w każdym głosie:"Madrigali di Luca Marenzio a 6.Lib.4."	!
!LO:TX:b:t=Madrigali di Luca Marenzio a 6.Lib.4.          M	!	!LO:TX:b:t=Madrigali di Luca Marenzio a 6.Lib.4.          F	!	!	!	!LO:TX:b:t=Madrigali di Luca Marenzio a 6.Lib.4.          P	!	!LO:TX:b:t=Madrigali di Luca Marenzio a 6.Lib.4.          I	!	!LO:TX:b:t=Madrigali di Luca Marenzio a 6.Lib.4.          C	!
.	.	.	.	.	.	.	.	.	.	.	.
=	=	=	=	=	=	=	=	=-	=	=	=
*-	*-	*-	*-	*-	*-	*-	*-	*-	*-	*-	*-
!!!system-decoration: [(s1,s2,s3,s4,s5,s6)]
!!!ENC: Mateusz Solarz
!!!END: 2022-06-15
!!!ENC: Urszula Świątek
!!!END: 2022-07-25
